packages/axiom-materials/src/icon_svgs/instagram-mono.svg

<svg height="16" viewBox="0 0 16 16" width="16" xmlns="http://www.w3.org/2000/svg"><path d="m11.2983898.04814217c.8515067.03883765 1.4330552.17408667 1.9419142.37186335.5260707.20441369.9722115.47796031 1.4169867.92270379.4447435.44477523.7182901.89091598.9227355 1.41698671.197745.50885894.332994 1.09040748.3718316 1.94191421.0340663.74662443.0453754 1.04853565.0476704 2.56787695v1.46104693c-.002295 1.51932009-.0136041 1.82123119-.0476704 2.56785569-.0388376.8515067-.1740866 1.4330552-.3718316 1.9419142-.2044454.5260707-.477992.9722115-.9227355 1.4169867-.4447752.4447435-.890916.7182901-1.4169867.9227355-.508859.197745-1.0904075.332994-1.9419142.3718316-.7466245.0340663-1.0485356.0453754-2.56785569.0476704h-1.46104693c-1.5193413-.002295-1.82125252-.0136041-2.56787695-.0476704-.85150673-.0388376-1.43305527-.1740866-1.94191421-.3718316-.52607073-.2044454-.97221148-.477992-1.41698671-.9227355-.44474348-.4447752-.7182901-.890916-.92270379-1.4169867-.19777668-.508859-.3330257-1.0904075-.37186335-1.9419142-.03193182-.6998435-.0438689-1.0089563-.04712948-2.29619847v-2.00436512c.00326058-1.2872597.01519766-1.59637253.04712948-2.29621598.03883765-.85150673.17408667-1.43305527.37186335-1.94191421.20441369-.52607073.47796031-.97221148.92270379-1.41698671.44477523-.44474348.89091598-.7182901 1.41698671-.92270379.50885894-.19777668 1.09040748-.3330257 1.94191421-.37186335.69984345-.03193182 1.00895628-.0438689 2.29621598-.04712948h2.00436512c1.28724217.00326058 1.59635497.01519766 2.29619847.04712948zm-2.1261506 1.39474903-2.09480391-.0006696c-1.3142697.00278012-1.6071487.01379329-2.31012179.0458669-.7799921.03556678-1.20358605.16589361-1.48548451.27545198-.37341939.14512515-.63991616.31848143-.91984575.59844276-.27996133.27992959-.45331761.54642636-.59844276.91984575-.10955837.28189846-.2398852.70549241-.27545198 1.48548451-.02993537.65610822-.04152475.95497891-.0451973 2.06046225l-.0006696 2.09480734c.00278012 1.31425131.01379329 1.60713031.0458669 2.31010341.03556678.7799921.16589361 1.2035861.27545198 1.4854845.14512515.3734194.31851318.6399162.59844276.9198458.27992959.2799613.54642636.4533176.91984575.5984427.28189846.1095584.70549241.2398852 1.48548451.275452.77318307.0352809 1.05017897.0450788 2.73644074.0464667l.75366079.0001388c1.90093877-.0006887 2.16697417-.0097209 2.97527147-.0466055.7799921-.0355668 1.2035861-.1658936 1.4854845-.275452.3734194-.1451251.6399162-.3184814.9198458-.5984427.2799613-.2799296.4533176-.5464264.5984427-.9198458.1095584-.2818984.2398852-.7054924.275452-1.4854845.0352809-.7732704.0450788-1.0503269.0464667-2.73645144l.0001388-.75360327c-.0006887-1.90082962-.0097209-2.16689923-.0466055-2.97531829-.0355668-.7799921-.1658936-1.20358605-.275452-1.48548451-.1451251-.37341939-.3184814-.63991616-.5984427-.91984575-.2799296-.27996133-.5464264-.45331761-.9198458-.59844276-.2818984-.10955837-.7054924-.2398852-1.4854845-.27545198-.6561082-.02993537-.9549789-.04152475-2.0604473-.0451973zm-1.1107672 2.4789008c2.286272 0 4.139648 1.853376 4.139648 4.13968 0 2.286272-1.853376 4.139648-4.139648 4.139648-2.286304 0-4.13968-1.853376-4.13968-4.139648 0-2.286304 1.853376-4.13968 4.13968-4.13968zm0 1.452512c-1.484096 0-2.687168 1.203072-2.687168 2.687168 0 1.484064 1.203072 2.687136 2.687168 2.687136 1.484064 0 2.687136-1.203072 2.687136-2.687136 0-1.484096-1.203072-2.687168-2.687136-2.687168zm4.3032-2.583456c.534272 0 .967392.43312.967392.967392s-.43312.96736-.967392.96736c-.53424 0-.96736-.433088-.96736-.96736s.43312-.967392.96736-.967392z" fill-rule="evenodd"/></svg>

<svg width="16px" height="16px" viewBox="0 0 16 16" version="1.1" xmlns="http://www.w3.org/2000/svg" xmlns:xlink="http://www.w3.org/1999/xlink">
    <g id="Page-1" stroke="none" stroke-width="1" fill="none" fill-rule="evenodd">
        <g id="SVG" fill="#000000">
            <path d="M11.2983898,0.04814217 C12.1498965,0.08697982 12.731445,0.22222884 13.240304,0.42000552 C13.7663747,0.62441921 14.2125155,0.89796583 14.6572907,1.34270931 C15.1020342,1.78748454 15.3755808,2.23362529 15.5800262,2.75969602 C15.7777712,3.26855496 15.9130202,3.8501035 15.9518578,4.70161023 C15.9859241,5.44823466 15.9972332,5.75014588 15.9995282,7.26948718 L15.9995282,8.73053411 C15.9972332,10.2498542 15.9859241,10.5517653 15.9518578,11.2983898 C15.9130202,12.1498965 15.7777712,12.731445 15.5800262,13.240304 C15.3755808,13.7663747 15.1020342,14.2125155 14.6572907,14.6572907 C14.2125155,15.1020342 13.7663747,15.3755808 13.240304,15.5800262 C12.731445,15.7777712 12.1498965,15.9130202 11.2983898,15.9518578 C10.5517653,15.9859241 10.2498542,15.9972332 8.73053411,15.9995282 L7.26948718,15.9995282 C5.75014588,15.9972332 5.44823466,15.9859241 4.70161023,15.9518578 C3.8501035,15.9130202 3.26855496,15.7777712 2.75969602,15.5800262 C2.23362529,15.3755808 1.78748454,15.1020342 1.34270931,14.6572907 C0.89796583,14.2125155 0.62441921,13.7663747 0.42000552,13.240304 C0.22222884,12.731445 0.08697982,12.1498965 0.04814217,11.2983898 C0.0162103453,10.5985463 0.00427326922,10.2894335 0.00101268565,9.00219133 L0.00101268565,6.99782621 C0.00427326922,5.71056651 0.0162103453,5.40145368 0.04814217,4.70161023 C0.08697982,3.8501035 0.22222884,3.26855496 0.42000552,2.75969602 C0.62441921,2.23362529 0.89796583,1.78748454 1.34270931,1.34270931 C1.78748454,0.89796583 2.23362529,0.62441921 2.75969602,0.42000552 C3.26855496,0.22222884 3.8501035,0.08697982 4.70161023,0.04814217 C5.40145368,0.0162103453 5.71056651,0.00427326922 6.99782621,0.00101268565 L9.00219133,0.00101268565 C10.2894335,0.00427326922 10.5985463,0.0162103453 11.2983898,0.04814217 Z M9.1722392,1.4428912 L7.07743529,1.4422216 C5.76316559,1.44500172 5.47028659,1.45601489 4.7673135,1.4880885 C3.9873214,1.52365528 3.56372745,1.65398211 3.28182899,1.76354048 C2.9084096,1.90866563 2.64191283,2.08202191 2.36198324,2.36198324 C2.08202191,2.64191283 1.90866563,2.9084096 1.76354048,3.28182899 C1.65398211,3.56372745 1.52365528,3.9873214 1.4880885,4.7673135 C1.45815313,5.42342172 1.44656375,5.72229241 1.4428912,6.82777575 L1.4422216,8.92258309 C1.44500172,10.2368344 1.45601489,10.5297134 1.4880885,11.2326865 C1.52365528,12.0126786 1.65398211,12.4362726 1.76354048,12.718171 C1.90866563,13.0915904 2.08205366,13.3580872 2.36198324,13.6380168 C2.64191283,13.9179781 2.9084096,14.0913344 3.28182899,14.2364595 C3.56372745,14.3460179 3.9873214,14.4763447 4.7673135,14.5119115 C5.54049657,14.5471924 5.81749247,14.5569903 7.50375424,14.5583782 L8.25741503,14.558517 C10.1583538,14.5578283 10.4243892,14.5487961 11.2326865,14.5119115 C12.0126786,14.4763447 12.4362726,14.3460179 12.718171,14.2364595 C13.0915904,14.0913344 13.3580872,13.9179781 13.6380168,13.6380168 C13.9179781,13.3580872 14.0913344,13.0915904 14.2364595,12.718171 C14.3460179,12.4362726 14.4763447,12.0126786 14.5119115,11.2326865 C14.5471924,10.4594161 14.5569903,10.1823596 14.5583782,8.49623506 L14.558517,7.74263179 C14.5578283,5.84180217 14.5487961,5.57573256 14.5119115,4.7673135 C14.4763447,3.9873214 14.3460179,3.56372745 14.2364595,3.28182899 C14.0913344,2.9084096 13.9179781,2.64191283 13.6380168,2.36198324 C13.3580872,2.08202191 13.0915904,1.90866563 12.718171,1.76354048 C12.4362726,1.65398211 12.0126786,1.52365528 11.2326865,1.4880885 C10.5765783,1.45815313 10.2777076,1.44656375 9.1722392,1.4428912 Z M8.061472,3.921792 C10.347744,3.921792 12.20112,5.775168 12.20112,8.061472 C12.20112,10.347744 10.347744,12.20112 8.061472,12.20112 C5.775168,12.20112 3.921792,10.347744 3.921792,8.061472 C3.921792,5.775168 5.775168,3.921792 8.061472,3.921792 Z M8.061472,5.374304 C6.577376,5.374304 5.374304,6.577376 5.374304,8.061472 C5.374304,9.545536 6.577376,10.748608 8.061472,10.748608 C9.545536,10.748608 10.748608,9.545536 10.748608,8.061472 C10.748608,6.577376 9.545536,5.374304 8.061472,5.374304 Z M12.364672,2.790848 C12.898944,2.790848 13.332064,3.223968 13.332064,3.75824 C13.332064,4.292512 12.898944,4.7256 12.364672,4.7256 C11.830432,4.7256 11.397312,4.292512 11.397312,3.75824 C11.397312,3.223968 11.830432,2.790848 12.364672,2.790848 Z" id="Shape"></path>
        </g>
    </g>
</svg>
